flaticon/education/medal-1.svg

<svg xmlns="http://www.w3.org/2000/svg" width="32" height="32" viewBox="0 0 24 24">
    <path d="M 18.460938 7.703125 C 18.21875 7.457031 18.054688 7.171875 18.097656 6.890625 C 18.097656 6.726562 18.21875 6.523438 18.421875 6.402344 C 18.460938 6.402344 18.460938 6.402344 18.503906 6.359375 L 18.867188 5.996094 C 19.398438 5.464844 19.558594 4.695312 19.234375 4.003906 C 18.910156 3.3125 18.21875 2.945312 17.488281 2.988281 L 16.957031 3.027344 C 16.675781 3.070312 16.429688 2.988281 16.226562 2.785156 C 16.023438 2.621094 15.902344 2.378906 15.902344 2.09375 L 15.902344 1.769531 C 15.902344 0.996094 15.453125 0.34375 14.722656 0.101562 C 13.992188 -0.140625 13.261719 0.0625 12.773438 0.628906 C 12.367188 0.953125 11.59375 0.953125 11.226562 0.628906 C 10.738281 0.0625 9.96875 -0.140625 9.277344 0.101562 C 8.546875 0.34375 8.097656 0.996094 8.097656 1.769531 L 8.097656 2.09375 C 8.097656 2.335938 7.976562 2.582031 7.773438 2.785156 C 7.570312 2.945312 7.324219 3.070312 7.042969 3.027344 L 6.511719 2.988281 C 5.78125 2.90625 5.050781 3.3125 4.765625 4.003906 C 4.480469 4.695312 4.601562 5.464844 5.132812 5.996094 L 5.496094 6.359375 C 5.539062 6.402344 5.578125 6.441406 5.617188 6.441406 C 5.78125 6.484375 5.863281 6.605469 5.902344 6.765625 C 5.984375 7.050781 5.820312 7.375 5.496094 7.703125 L 5.132812 8.066406 C 4.601562 8.597656 4.441406 9.367188 4.765625 10.058594 C 5.089844 10.75 5.78125 11.117188 6.511719 11.074219 L 7.042969 11.035156 C 7.324219 11.035156 7.609375 11.117188 7.8125 11.320312 C 7.859375 11.375 7.898438 11.429688 7.9375 11.484375 L 7.9375 23.59375 C 7.9375 23.796875 8.058594 23.917969 8.21875 23.960938 C 8.261719 24 8.300781 24 8.34375 24 C 8.464844 24 8.585938 23.960938 8.667969 23.878906 L 12.039062 19.730469 L 15.375 23.796875 C 15.496094 23.917969 15.65625 23.960938 15.820312 23.917969 C 15.984375 23.878906 16.105469 23.714844 16.105469 23.554688 L 16.105469 11.371094 C 16.128906 11.339844 16.15625 11.308594 16.1875 11.277344 C 16.390625 11.117188 16.632812 10.992188 16.917969 11.035156 L 17.445312 11.074219 C 18.179688 11.15625 18.867188 10.75 19.195312 10.058594 C 19.476562 9.367188 19.355469 8.597656 18.828125 8.066406 Z M 15.25 22.414062 L 12.324219 18.839844 C 12.242188 18.714844 12.121094 18.675781 12 18.675781 C 11.878906 18.675781 11.757812 18.757812 11.675781 18.839844 L 8.75 22.457031 L 8.75 13.964844 C 8.753906 13.96875 8.761719 13.972656 8.765625 13.980469 C 8.847656 14.054688 8.960938 14.125 9.074219 14.164062 C 9.722656 14.488281 10.535156 14.367188 11.144531 13.839844 L 11.1875 13.796875 L 11.226562 13.675781 C 11.234375 13.667969 11.242188 13.65625 11.253906 13.648438 C 11.269531 13.628906 11.289062 13.609375 11.3125 13.59375 C 11.324219 13.585938 11.335938 13.578125 11.347656 13.570312 C 11.496094 13.476562 11.714844 13.433594 11.960938 13.433594 C 12.203125 13.433594 12.425781 13.5 12.570312 13.585938 C 12.621094 13.617188 12.660156 13.644531 12.691406 13.675781 L 12.773438 13.796875 L 12.8125 13.839844 C 13.421875 14.367188 14.277344 14.488281 14.96875 14.164062 C 15.089844 14.125 15.171875 14.082031 15.25 14 Z M 18.421875 9.652344 C 18.300781 9.976562 17.972656 10.261719 17.488281 10.222656 L 16.957031 10.179688 C 16.472656 10.140625 15.984375 10.34375 15.617188 10.667969 C 15.292969 10.992188 15.089844 11.480469 15.089844 11.96875 L 15.089844 12.621094 C 15.089844 13.109375 14.765625 13.3125 14.601562 13.390625 C 14.480469 13.460938 14.324219 13.507812 14.148438 13.511719 C 13.921875 13.507812 13.667969 13.429688 13.421875 13.230469 L 13.339844 13.148438 C 13.058594 12.863281 12.570312 12.660156 12 12.660156 C 11.429688 12.660156 10.941406 12.824219 10.660156 13.148438 L 10.578125 13.230469 C 10.210938 13.515625 9.765625 13.59375 9.398438 13.433594 C 9.113281 13.3125 8.910156 12.984375 8.910156 12.578125 L 8.910156 11.929688 C 8.910156 11.683594 8.828125 11.402344 8.707031 11.15625 C 8.679688 11.101562 8.640625 11.054688 8.589844 11.023438 C 8.519531 10.925781 8.433594 10.832031 8.34375 10.75 C 7.976562 10.382812 7.449219 10.222656 6.960938 10.261719 L 6.433594 10.304688 C 5.945312 10.34375 5.617188 10.019531 5.496094 9.734375 C 5.375 9.449219 5.335938 9.003906 5.699219 8.71875 L 6.066406 8.351562 C 6.59375 7.824219 6.796875 7.214844 6.714844 6.6875 C 6.636719 6.320312 6.390625 5.996094 6.023438 5.792969 L 5.699219 5.464844 C 5.335938 5.101562 5.375 4.652344 5.496094 4.367188 C 5.660156 4.042969 5.945312 3.757812 6.433594 3.800781 L 7 3.839844 C 7.488281 3.882812 7.976562 3.71875 8.34375 3.394531 C 8.707031 3.070312 8.910156 2.582031 8.910156 2.09375 L 8.910156 1.769531 C 8.910156 1.28125 9.234375 0.996094 9.5625 0.875 C 9.847656 0.792969 10.292969 0.792969 10.617188 1.199219 L 10.660156 1.238281 C 11.351562 1.847656 12.609375 1.847656 13.339844 1.238281 L 13.382812 1.199219 C 13.667969 0.792969 14.113281 0.75 14.4375 0.875 C 14.765625 0.953125 15.089844 1.28125 15.089844 1.769531 L 15.089844 2.050781 C 15.089844 2.539062 15.292969 3.027344 15.65625 3.351562 C 15.984375 3.71875 16.472656 3.882812 16.957031 3.71875 L 17.488281 3.679688 C 17.972656 3.636719 18.300781 3.960938 18.421875 4.246094 C 18.542969 4.574219 18.585938 4.980469 18.21875 5.34375 L 17.894531 5.667969 C 17.527344 5.914062 17.285156 6.28125 17.242188 6.726562 C 17.203125 7.253906 17.40625 7.785156 17.851562 8.191406 L 18.21875 8.554688 C 18.585938 8.921875 18.542969 9.367188 18.421875 9.652344 Z M 18.421875 9.652344"/>
    <path d="M12 14.609375C11.757812 14.609375 11.59375 14.773438 11.59375 15.019531L11.59375 17.050781C11.59375 17.292969 11.757812 17.457031 12 17.457031 12.242188 17.457031 12.40625 17.292969 12.40625 17.050781L12.40625 15.019531C12.40625 14.773438 12.242188 14.609375 12 14.609375zM15.535156 5.710938L13.136719 5.304688 12.367188 3.3125C12.324219 3.148438 12.164062 3.070312 12 3.070312 11.835938 3.070312 11.714844 3.148438 11.632812 3.3125L10.863281 5.304688 8.464844 5.710938C8.300781 5.75 8.179688 5.832031 8.140625 5.996094 8.058594 6.117188 8.097656 6.28125 8.21875 6.402344L9.804688 7.988281 9.398438 10.382812C9.359375 10.546875 9.4375 10.710938 9.5625 10.789062 9.683594 10.871094 9.886719 10.871094 10.007812 10.789062L12 9.613281 13.992188 10.789062C14.03125 10.832031 14.113281 10.832031 14.195312 10.832031 14.277344 10.832031 14.355469 10.832031 14.4375 10.789062 14.558594 10.710938 14.640625 10.546875 14.601562 10.382812L14.195312 7.988281 15.78125 6.402344C15.859375 6.28125 15.902344 6.15625 15.859375 5.996094 15.820312 5.832031 15.699219 5.75 15.535156 5.710938zM13.464844 7.5C13.382812 7.621094 13.300781 7.742188 13.339844 7.863281L13.625 9.613281 12.203125 8.757812C12.164062 8.71875 12.082031 8.71875 12 8.71875 11.917969 8.71875 11.835938 8.757812 11.796875 8.800781L10.375 9.652344 10.660156 7.90625C10.660156 7.78125 10.617188 7.621094 10.535156 7.539062L9.359375 6.359375 11.1875 6.035156C11.347656 6.035156 11.472656 5.914062 11.511719 5.792969L12 4.53125 12.488281 5.792969C12.570312 5.914062 12.691406 5.996094 12.8125 6.035156L14.640625 6.320312zM13.464844 7.5"/>
</svg>

<svg xmlns="http://www.w3.org/2000/svg" width="32" height="32" viewBox="0 0 24 24">
    <path d="M18.46 7.703c-.241-.246-.405-.531-.362-.812 0-.164.12-.368.324-.489.039 0 .039 0 .082-.043l.363-.363c.531-.531.692-1.3.367-1.992-.324-.691-1.015-1.059-1.746-1.016l-.531.04a.813.813 0 0 1-.73-.243.87.87 0 0 1-.325-.691V1.77c0-.774-.449-1.426-1.18-1.668-.73-.243-1.46-.04-1.949.527-.406.324-1.18.324-1.546 0a1.787 1.787 0 0 0-1.95-.527c-.73.242-1.18.894-1.18 1.668v.324c0 .242-.12.488-.324.691-.203.16-.449.285-.73.242l-.531-.039c-.73-.082-1.461.325-1.746 1.016-.286.691-.164 1.46.367 1.992l.363.363c.043.043.082.082.121.082.164.043.246.164.285.325.082.285-.082.609-.406.937l-.363.363c-.531.532-.692 1.301-.367 1.993.324.691 1.015 1.058 1.746 1.015l.531-.039c.281 0 .566.082.77.285.046.055.085.11.125.164v12.11a.36.36 0 0 0 .28.367c.044.039.083.039.126.039.12 0 .242-.04.324-.121l3.371-4.149 3.336 4.067c.121.121.281.164.445.121a.387.387 0 0 0 .285-.363V11.37a.88.88 0 0 1 .082-.094c.204-.16.446-.285.731-.242l.527.04c.735.081 1.422-.325 1.75-1.016.282-.692.16-1.461-.367-1.993zm-3.21 14.711l-2.926-3.574a.364.364 0 0 0-.324-.164c-.121 0-.242.082-.324.164L8.75 22.457v-8.492c.004.004.012.008.016.015a.939.939 0 0 0 .308.184c.649.324 1.461.203 2.07-.324l.043-.043.04-.121c.007-.008.015-.02.027-.028a.263.263 0 0 1 .059-.054l.035-.024c.148-.093.367-.136.613-.136.242 0 .465.066.61.152a.65.65 0 0 1 .12.09l.082.12.04.044c.609.527 1.464.648 2.156.324A.612.612 0 0 0 15.25 14zm3.172-12.762a.888.888 0 0 1-.934.57l-.531-.042c-.484-.04-.973.164-1.34.488a1.881 1.881 0 0 0-.527 1.3v.653a.81.81 0 0 1-.488.77.949.949 0 0 1-.454.12 1.18 1.18 0 0 1-.726-.28l-.082-.083c-.281-.285-.77-.488-1.34-.488-.57 0-1.059.164-1.34.488l-.082.082c-.367.286-.812.364-1.18.204-.285-.121-.488-.45-.488-.856v-.648a1.84 1.84 0 0 0-.203-.774.322.322 0 0 0-.117-.133 1.811 1.811 0 0 0-.246-.273c-.367-.367-.895-.527-1.383-.488l-.527.043a.939.939 0 0 1-.938-.57c-.121-.286-.16-.731.203-1.016l.367-.367c.528-.528.73-1.137.649-1.665a1.355 1.355 0 0 0-.692-.894L5.7 5.465c-.363-.363-.324-.813-.203-1.098.164-.324.45-.61.938-.566L7 3.84a1.8 1.8 0 0 0 1.344-.445c.363-.325.566-.813.566-1.301V1.77c0-.489.324-.774.652-.895.286-.082.731-.082 1.055.324l.043.04c.692.609 1.95.609 2.68 0l.043-.04a.875.875 0 0 1 1.055-.324c.328.078.652.406.652.895v.28c0 .49.203.977.566 1.302.328.367.817.53 1.301.367l.531-.04a.93.93 0 0 1 .934.567c.121.328.164.734-.203 1.098l-.324.324c-.368.246-.61.613-.653 1.059-.039.527.164 1.058.61 1.464l.367.364c.367.367.324.812.203 1.097zm0 0"/>
    <path d="M12 14.61c-.242 0-.406.163-.406.41v2.03c0 .243.164.407.406.407a.385.385 0 0 0 .406-.406V15.02c0-.247-.164-.41-.406-.41zm0 0M15.535 5.71l-2.398-.405-.77-1.992c-.043-.165-.203-.243-.367-.243-.164 0-.285.078-.367.243l-.77 1.992-2.398.406c-.164.039-.285.121-.324.285-.082.121-.043.285.078.406l1.586 1.586-.407 2.395c-.039.164.04.328.165.406a.434.434 0 0 0 .445 0L12 9.613l1.992 1.176c.04.043.121.043.203.043.082 0 .16 0 .242-.043a.388.388 0 0 0 .165-.406l-.407-2.395 1.586-1.586c.078-.12.121-.246.078-.406-.039-.164-.16-.246-.324-.285zm-2.07 1.79c-.082.121-.164.242-.125.363l.285 1.75-1.422-.855c-.039-.04-.121-.04-.203-.04a.295.295 0 0 0-.203.083l-1.422.851.285-1.746c0-.125-.043-.285-.125-.367L9.36 6.36l1.829-.324c.16 0 .285-.12.324-.242L12 4.531l.488 1.262a.629.629 0 0 0 .325.242l1.828.285zm0 0"/>
</svg>
